!!!OTL: ALLES IST VERGAENGLICH
!!!ARE: Europa, Mitteleuropa, Deutschland, Schlesien
!!!SCT: E2149A
!!!YEM: Copyright 1995, estate of Helmut Schaffrath.
**kern
*ICvox
*Ivox
*M4/4
*k[b-]
*F:
=1
{4.f
8g
4a
4b-
=2
2cc
4a
4r}
=3
{4cc
8b-
8a
4g
4g
=4
2a
4r}
{4cc
=5
4cc
8b-
8a
4g
4g
=6
4.a
8b-
4cc}
{4cc
=7
4cc
8b-
8a
4g
4g
=8
4.a
8b-
4cc
4r}
=9
{4cc
8b-
8a
4g
4g
=10
2f
2r}
==
!!!AGN: geistlich, Moral - Lied, Vergaenglichkeit
!!!ONB: ESAC (Essen Associative Code) Database: ERK3
!!!AMT: simple quadruple
!!!AIN: vox
!!!EED: Helmut Schaffrath
!!!EEV: 1.0
*-
